public/illustrations/_tie.svg

<svg width="164" height="251" viewBox="0 0 164 251" fill="none" xmlns="http://www.w3.org/2000/svg">
<path d="M102.884 152.531C96.6544 161.875 90.5662 171.22 84.3364 180.423C80.9383 185.521 77.5402 190.759 73.7174 195.573C71.1688 198.405 68.3371 201.095 65.3638 203.502C64.7974 203.926 64.0895 204.352 63.24 204.493C58.0013 206.051 52.621 206.334 47.2407 205.484C43.1347 204.635 41.294 202.369 41.0108 198.263C40.7277 193.449 40.4445 188.494 40.4445 183.68C40.4445 181.839 40.7277 180.14 41.4356 178.441C42.1436 176.742 43.1347 175.326 44.409 174.052C51.3467 167.256 58.2844 160.318 64.939 153.097C68.3371 149.416 71.452 145.451 74.1422 141.204C85.0443 125.771 94.5306 109.347 102.459 92.2154C104.442 87.8262 103.451 83.5785 103.167 79.3309C103.167 77.915 100.902 76.6409 99.6277 75.2251C98.6366 75.6498 97.6455 76.0744 96.796 76.4992C84.1948 83.1537 71.5936 89.8084 58.0012 94.3392C51.6298 96.4629 44.9753 98.5866 38.3207 99.1529C20.9056 100.569 6.32216 90.9412 1.79139 72.8182C-0.473994 64.7478 -0.615598 56.111 1.5082 48.0406C2.78248 43.2267 5.18944 38.6959 8.44594 34.8731C14.8173 27.5106 22.6046 21.4225 31.2414 16.8917C44.1258 10.0956 57.8597 6.13089 72.0183 3.15759C82.6373 0.892212 93.3979 -0.240407 104.158 0.0427653C111.096 0.0427653 118.034 1.45856 124.547 3.86552C127.662 5.13979 130.635 6.69731 133.325 8.53792C141.679 14.4845 144.227 23.9709 140.121 33.4572C139.272 35.4394 138.847 37.5632 138.989 39.8286C138.847 49.0316 137.573 58.2348 135.024 67.1547C135.024 67.7211 134.741 68.4289 134.316 68.8537C131.626 71.827 132.901 74.8003 133.892 78.0568C138.139 91.9322 142.245 105.808 146.068 119.825C151.448 139.647 156.404 159.61 161.784 179.432C163.908 186.795 163.625 194.582 160.935 201.661C156.545 213.413 152.298 225.306 148.05 237.058C147.059 239.89 146.351 243.004 145.36 245.836C143.52 251.358 138.989 252.491 135.024 248.243C130.352 243.288 126.104 237.907 121.857 232.669C117.892 227.855 114.211 222.899 110.388 218.085C106.565 213.271 104.442 207.183 104.583 200.953C104.583 191.609 104.583 182.122 104.442 172.778C104.442 165.982 104.017 159.186 103.734 152.389H103.167L102.884 152.531ZM131.202 104.108C127.803 104.108 124.83 103.825 123.839 100.286C122.989 97.0292 125.113 95.047 127.945 93.2064L122.848 78.1982L114.494 80.6054C114.494 81.0302 114.353 81.5965 114.211 82.0212C114.211 90.9412 114.494 99.7192 114.211 108.639C113.928 117.559 115.202 126.338 113.786 135.116V135.54C114.211 157.628 114.636 179.715 114.919 201.803C114.919 205.909 116.618 209.873 119.45 212.705C123.414 210.864 125.538 211.006 127.237 213.13C127.945 213.979 128.37 214.97 128.37 215.961C127.945 218.085 127.237 220.067 126.529 222.05L137.431 235.642C139.13 230.403 140.688 225.872 142.104 221.342C138.139 219.359 136.723 217.236 137.573 214.404C137.856 213.13 138.564 212.139 139.697 211.431C141.962 210.723 144.227 210.298 146.634 209.873C147.909 206.617 149.325 202.652 150.882 198.83C153.289 193.449 153.431 187.503 151.59 181.981C151.024 180.14 150.74 178.299 150.174 176.317L136.299 123.364C134.6 116.993 132.901 110.621 131.202 104.108ZM22.3214 64.7475V63.6151C19.4897 54.6952 22.463 47.7574 29.2592 41.9524C33.9315 37.9879 39.595 35.7224 45.4 34.0234C55.0279 31.0501 64.939 29.3511 74.8501 28.7848C81.2215 28.5016 87.7344 28.7849 94.1058 29.2096C97.2207 29.4928 100.477 29.4926 103.592 29.0679C112.795 27.652 121.715 24.6787 131.202 25.8113C131.626 24.5371 131.626 23.1215 131.202 21.8472C130.777 20.5729 129.927 19.4402 128.795 18.5907C125.963 16.4669 122.848 14.6262 119.591 13.2103C112.937 10.6618 105.858 10.3787 98.6366 10.5203C82.9205 10.6619 67.9123 14.0598 53.0457 18.8738C43.4178 21.8471 34.3563 26.2361 26.2859 32.1827C21.0471 35.8639 16.658 40.3948 13.4015 45.7751C8.72911 53.7039 12.8351 62.4823 22.1799 64.6061L22.3214 64.7475ZM103.734 114.303C103.309 114.727 102.884 115.152 102.601 115.577C96.6544 125.346 90.7078 135.116 84.478 144.602C77.5402 155.363 69.4698 165.132 60.2666 173.91C57.5765 176.459 55.0279 179.149 52.4794 181.839C51.7714 182.406 51.3467 183.113 51.2051 184.105C51.2051 187.786 51.4883 191.467 51.7714 195.007C58.0013 195.573 59.4171 195.431 61.5409 192.883C65.7885 187.786 70.0361 182.689 74.1422 177.308C75.6996 175.326 76.6907 172.778 78.2482 170.796C85.7522 160.318 92.8316 149.416 99.2029 138.089C102.318 132.709 104.583 127.329 104.017 121.099C103.875 119.117 104.017 116.993 104.017 114.303H103.734ZM12.552 72.3933C15.6669 80.3222 20.6224 85.7023 28.4097 87.8261C34.0731 89.5251 39.7366 88.8171 45.4 87.4012C61.9657 83.0121 77.1154 75.2251 92.1236 67.1547C92.69 66.73 93.3979 66.3052 93.9643 65.7389L89.4335 53.2792C87.3097 55.1198 85.469 56.6773 83.6284 58.2347C77.965 63.3318 71.452 67.2961 64.3726 70.1278C55.7359 73.5259 46.8159 75.6497 37.6128 76.4992C29.5423 77.2071 21.7551 76.4992 14.3926 72.9595C14.1094 72.818 13.6846 72.6765 12.6935 72.3933H12.552ZM31.6662 57.6682C31.383 60.2167 33.3652 62.199 34.9226 64.4644C35.3474 65.1723 36.0553 65.7388 36.7633 66.022C37.4712 66.3051 38.3207 66.3051 39.1702 66.022C47.5238 65.0309 55.7359 62.6238 63.5232 59.2258C72.0183 55.2614 78.9561 49.1733 85.3275 42.3772C85.6107 42.094 85.8938 41.669 86.0354 41.1027C86.177 40.6779 86.177 40.1116 86.0354 39.6868C85.7522 39.1205 84.3363 38.5541 83.4868 38.5541C80.9383 38.5541 78.3897 38.8373 75.8412 38.9789C65.6469 39.4037 55.4527 41.2445 45.6832 44.501C41.7188 45.6337 38.0376 47.6158 34.9226 50.4475C33.9315 51.297 33.082 52.4296 32.5157 53.5623C31.9493 54.8366 31.5246 56.1108 31.5246 57.3851L31.6662 57.6682ZM100.477 52.4296C103.167 52.4296 105.858 52.4297 106.99 55.403C108.264 58.5179 106.565 60.7834 104.442 62.9071C104.866 63.6151 105.15 64.323 105.574 65.0309C106.141 66.022 106.707 67.0129 107.415 68.004C109.114 70.5526 109.822 70.9773 112.937 70.1278C115.485 69.5615 117.892 68.5706 120.299 67.8627C121.715 67.5795 122.99 66.7298 123.981 65.5971C124.972 64.4644 125.538 63.0485 125.68 61.6327C126.104 58.9425 126.812 56.3942 127.237 53.7041C127.803 49.3149 128.228 45.067 128.37 40.6779C128.37 36.2887 127.52 35.7226 123.273 36.2889C120.158 36.7137 116.901 37.2798 113.786 37.8461C108.406 38.8372 103.026 39.8286 97.5039 40.9613C97.0792 45.4921 99.3445 48.7483 100.477 52.4296Z" fill="#102185"/>
<path d="M128.087 124.356C128.087 125.772 127.379 126.904 126.388 127.895C125.397 128.745 124.122 129.311 122.707 129.311C121.291 129.311 121.432 129.17 120.866 128.886C120.3 128.603 119.733 128.32 119.309 127.754C118.884 127.329 118.459 126.763 118.317 126.196C118.034 125.63 118.034 124.922 118.034 124.356C118.034 123.082 118.601 121.666 119.592 120.674C120.583 119.683 121.857 119.117 123.131 119.117C124.547 119.117 125.821 119.683 126.671 120.674C127.662 121.666 128.087 122.94 128.087 124.356Z" fill="#102185"/>
<path d="M127.379 198.546C126.671 198.546 126.104 198.546 125.396 198.121C124.83 197.838 124.264 197.555 123.697 196.988C123.273 196.564 122.848 195.997 122.565 195.289C122.282 194.723 122.14 194.015 122.14 193.307C122.14 192.599 122.14 192.033 122.565 191.325C122.848 190.759 123.131 190.192 123.697 189.626C124.122 189.201 124.689 188.776 125.396 188.493C125.963 188.21 126.671 188.068 127.379 188.068C128.087 188.068 128.653 188.21 129.361 188.493C129.927 188.776 130.494 189.201 130.918 189.626C131.343 190.192 131.768 190.759 131.909 191.325C132.193 192.033 132.193 192.599 132.193 193.307C132.193 193.873 132.193 194.581 131.909 195.148C131.626 195.714 131.343 196.28 130.918 196.705C130.494 197.13 129.927 197.555 129.361 197.696C128.795 197.979 128.087 197.979 127.52 197.979L127.379 198.546Z" fill="#102185"/>
<path d="M140.971 190.051C139.697 190.051 138.422 189.485 137.573 188.636C136.723 187.786 136.157 186.512 136.157 185.238C136.157 183.822 136.723 182.547 137.714 181.556C138.706 180.565 139.98 179.999 141.396 179.999C142.104 179.999 142.67 180.141 143.236 180.424C143.803 180.707 144.369 180.99 144.794 181.556C145.219 181.981 145.643 182.548 145.785 183.114C146.068 183.68 146.21 184.388 146.21 184.955C146.21 185.662 146.21 186.37 145.926 186.937C145.643 187.503 145.36 188.069 144.794 188.636C144.369 189.06 143.803 189.485 143.095 189.768C142.528 190.051 141.82 190.193 141.113 190.051H140.971Z" fill="#102185"/>
<path d="M127.803 159.894C127.237 159.894 126.671 159.893 126.104 159.61C125.538 159.327 124.972 159.044 124.547 158.619C124.122 158.195 123.839 157.628 123.556 157.062C123.273 156.496 123.273 155.929 123.273 155.363C123.273 154.088 123.839 152.956 124.688 152.107C125.538 151.257 126.812 150.832 127.945 150.832C129.219 150.832 130.352 151.398 131.201 152.248C132.051 153.097 132.617 154.23 132.617 155.504C132.617 156.779 132.051 157.911 131.201 158.761C130.352 159.611 129.078 160.035 127.945 160.035L127.803 159.894Z" fill="#102185"/>
<path d="M118.317 42.8016C119.025 42.8016 119.733 42.8017 120.299 43.2264C120.865 43.5096 121.432 43.7928 121.998 44.3592C122.423 44.7839 122.848 45.3502 123.131 46.0581C123.414 46.6245 123.556 47.3326 123.556 48.0406C123.556 49.3148 123.131 50.5891 122.281 51.5802C121.432 52.5713 120.157 53.1376 118.883 53.2792C117.467 53.2792 116.193 52.8542 115.202 52.0047C114.211 51.1552 113.644 49.8809 113.503 48.465C113.503 47.0492 113.928 45.7751 114.777 44.784C115.627 43.7929 116.901 43.2266 118.317 43.085V42.8016Z" fill="#102185"/>
</svg>

<svg xmlns="http://www.w3.org/2000/svg" width="164" height="251" fill="none" viewBox="0 0 164 251"><path fill="#102185" d="M102.884 152.531c-6.23 9.344-12.318 18.689-18.548 27.892-3.398 5.098-6.796 10.336-10.619 15.15a74 74 0 0 1-8.353 7.929c-.567.424-1.275.85-2.124.991-5.239 1.558-10.619 1.841-16 .991-4.105-.849-5.946-3.115-6.23-7.221-.282-4.814-.566-9.769-.566-14.583 0-1.841.284-3.54.992-5.239s1.699-3.115 2.973-4.389c6.938-6.796 13.875-13.734 20.53-20.955 3.398-3.681 6.513-7.646 9.203-11.893a312.3 312.3 0 0 0 28.317-48.989c1.983-4.389.992-8.636.708-12.884 0-1.416-2.265-2.69-3.54-4.106-.99.425-1.981.85-2.831 1.274-12.601 6.655-25.202 13.31-38.795 17.84-6.371 2.124-13.026 4.248-19.68 4.814-17.415 1.416-31.999-8.212-36.53-26.335-2.265-8.07-2.407-16.707-.283-24.777 1.274-4.814 3.681-9.345 6.938-13.168 6.371-7.362 14.159-13.45 22.795-17.981C44.126 10.096 57.86 6.13 72.018 3.158 82.638.892 93.398-.24 104.158.043c6.938 0 13.876 1.416 20.389 3.823 3.115 1.274 6.088 2.831 8.778 4.672 8.354 5.947 10.902 15.433 6.796 24.92-.849 1.981-1.274 4.105-1.132 6.37-.142 9.204-1.416 18.407-3.965 27.327 0 .566-.283 1.274-.708 1.699-2.69 2.973-1.415 5.946-.424 9.203 4.247 13.875 8.353 27.751 12.176 41.768 5.38 19.822 10.336 39.785 15.716 59.607 2.124 7.363 1.841 15.15-.849 22.229-4.39 11.752-8.637 23.645-12.885 35.397-.991 2.832-1.699 5.946-2.69 8.778-1.84 5.522-6.371 6.655-10.336 2.407-4.672-4.955-8.92-10.336-13.167-15.574-3.965-4.814-7.646-9.77-11.469-14.584s-5.946-10.902-5.805-17.132c0-9.344 0-18.831-.141-28.175 0-6.796-.425-13.592-.708-20.389h-.567zm28.318-48.423c-3.399 0-6.372-.283-7.363-3.822-.85-3.257 1.274-5.239 4.106-7.08l-5.097-15.008-8.354 2.407c0 .425-.141.992-.283 1.416 0 8.92.283 17.698 0 26.618s.991 17.699-.425 26.477v.424c.425 22.088.85 44.175 1.133 66.263 0 4.106 1.699 8.07 4.531 10.902 3.964-1.841 6.088-1.699 7.787.425.708.849 1.133 1.84 1.133 2.831-.425 2.124-1.133 4.106-1.841 6.089l10.902 13.592c1.699-5.239 3.257-9.77 4.673-14.3-3.965-1.983-5.381-4.106-4.531-6.938q.424-1.911 2.124-2.973c2.265-.708 4.53-1.133 6.937-1.558 1.275-3.256 2.691-7.221 4.248-11.043 2.407-5.381 2.549-11.327.708-16.849-.566-1.841-.85-3.682-1.416-5.664l-13.875-52.953a3640 3640 0 0 1-5.097-19.256m-108.88-39.36v-1.133c-2.832-8.92.141-15.858 6.937-21.663 4.672-3.964 10.336-6.23 16.141-7.929 9.628-2.973 19.539-4.672 29.45-5.238 6.372-.283 12.884 0 19.256.425 3.115.283 6.371.283 9.486-.142 9.203-1.416 18.123-4.39 27.61-3.257a6.34 6.34 0 0 0 0-3.964c-.425-1.274-1.275-2.407-2.407-3.256-2.832-2.124-5.947-3.965-9.204-5.38-6.654-2.55-13.733-2.832-20.954-2.69-15.716.14-30.725 3.539-45.591 8.353-9.628 2.973-18.69 7.362-26.76 13.309-5.239 3.68-9.628 8.212-12.885 13.592-4.672 7.929-.566 16.707 8.779 18.831zm81.412 49.555c-.425.424-.85.849-1.133 1.274-5.947 9.769-11.893 19.539-18.123 29.025a160.6 160.6 0 0 1-24.211 29.308c-2.69 2.549-5.24 5.239-7.788 7.929-.708.567-1.132 1.274-1.274 2.266 0 3.681.283 7.362.566 10.902 6.23.566 7.646.424 9.77-2.124 4.248-5.097 8.495-10.194 12.601-15.575 1.558-1.982 2.549-4.53 4.106-6.512 7.504-10.478 14.584-21.38 20.955-32.707 3.115-5.38 5.38-10.76 4.814-16.99-.142-1.982 0-4.106 0-6.796zm-91.182-41.91c3.115 7.93 8.07 13.31 15.858 15.433 5.663 1.7 11.327.991 16.99-.425 16.566-4.389 31.715-12.176 46.724-20.246.566-.425 1.274-.85 1.84-1.416l-4.53-12.46a615 615 0 0 1-5.806 4.956c-5.663 5.097-12.176 9.061-19.255 11.893a97.1 97.1 0 0 1-26.76 6.371c-8.07.708-15.858 0-23.22-3.54-.284-.141-.708-.282-1.7-.566zm19.114-14.725c-.283 2.549 1.7 4.531 3.257 6.796a3.9 3.9 0 0 0 1.84 1.558c.708.283 1.558.283 2.407 0 8.354-.991 16.566-3.398 24.353-6.796 8.495-3.965 15.433-10.053 21.804-16.849.284-.283.567-.708.708-1.274a2.4 2.4 0 0 0 0-1.416c-.283-.566-1.699-1.133-2.548-1.133-2.549 0-5.097.283-7.646.425A110 110 0 0 0 45.683 44.5c-3.964 1.133-7.645 3.115-10.76 5.947-.992.849-1.841 1.982-2.407 3.114-.567 1.275-.991 2.549-.991 3.823zm68.811-5.238c2.69 0 5.381 0 6.513 2.973 1.274 3.115-.425 5.38-2.548 7.504.424.708.708 1.416 1.132 2.124.567.991 1.133 1.982 1.841 2.973 1.699 2.549 2.407 2.973 5.522 2.124 2.548-.567 4.955-1.557 7.362-2.265 1.416-.284 2.691-1.133 3.682-2.266a7.1 7.1 0 0 0 1.699-3.964c.424-2.69 1.132-5.239 1.557-7.929.566-4.39.991-8.637 1.133-13.026 0-4.39-.85-4.955-5.097-4.39-3.115.426-6.372.992-9.487 1.558-5.38.991-10.76 1.983-16.282 3.115-.425 4.531 1.84 7.787 2.973 11.469"/><path fill="#102185" d="M128.087 124.356c0 1.416-.708 2.548-1.699 3.539-.991.85-2.266 1.416-3.681 1.416s-1.275-.141-1.841-.425c-.566-.283-1.133-.566-1.557-1.132-.425-.425-.85-.991-.992-1.558-.283-.566-.283-1.274-.283-1.84 0-1.274.567-2.69 1.558-3.682.991-.991 2.265-1.557 3.539-1.557 1.416 0 2.69.566 3.54 1.557.991.992 1.416 2.266 1.416 3.682M127.379 198.546c-.708 0-1.275 0-1.983-.425-.566-.283-1.132-.566-1.699-1.133a5.1 5.1 0 0 1-1.132-1.699c-.283-.566-.425-1.274-.425-1.982s0-1.274.425-1.982c.283-.566.566-1.133 1.132-1.699.425-.425.992-.85 1.699-1.133.567-.283 1.275-.425 1.983-.425s1.274.142 1.982.425a6.3 6.3 0 0 1 1.557 1.133c.425.566.85 1.133.991 1.699.284.708.284 1.274.284 1.982 0 .566 0 1.274-.284 1.841-.283.566-.566 1.132-.991 1.557-.424.425-.991.85-1.557.991-.566.283-1.274.283-1.841.283zM140.971 190.051c-1.274 0-2.549-.566-3.398-1.415s-1.416-2.124-1.416-3.398c0-1.416.566-2.691 1.557-3.682.992-.991 2.266-1.557 3.682-1.557.708 0 1.274.142 1.84.425s1.133.566 1.558 1.132c.425.425.849.992.991 1.558.283.566.425 1.274.425 1.841 0 .707 0 1.415-.284 1.982-.283.566-.566 1.132-1.132 1.699a5.1 5.1 0 0 1-1.699 1.132c-.567.283-1.275.425-1.982.283zM127.803 159.894c-.566 0-1.132-.001-1.699-.284-.566-.283-1.132-.566-1.557-.991-.425-.424-.708-.991-.991-1.557s-.283-1.133-.283-1.699c0-1.275.566-2.407 1.415-3.256.85-.85 2.124-1.275 3.257-1.275 1.274 0 2.407.566 3.256 1.416.85.849 1.416 1.982 1.416 3.256 0 1.275-.566 2.407-1.416 3.257-.849.85-2.123 1.274-3.256 1.274zM118.317 42.802c.708 0 1.416 0 1.982.424.566.284 1.133.567 1.699 1.133.425.425.85.991 1.133 1.7.283.566.425 1.274.425 1.982 0 1.274-.425 2.548-1.275 3.54-.849.99-2.124 1.557-3.398 1.698-1.416 0-2.69-.425-3.681-1.274-.991-.85-1.558-2.124-1.699-3.54 0-1.416.425-2.69 1.274-3.681.85-.991 2.124-1.557 3.54-1.699z"/></svg>
